X: 1181
T: Moll in the Wadd.   a Jig.
O: Irish.
%R: jig
B: Niel Gow & Sons "Complete Repository" v.1 p.18 #1
Z: 2021 John Chambers <jc:trillian.mit.edu>
M: 6/8
L: 1/8
K: Em	% and/or G or Dmix
% - - - - - - - - - -
% Voice 1 formatted for proofreading.
V: 1 staves=2
c |\
TBAB G2F | TE2F G2c | TBAB G2B | AFD D2c ||\
TBAB G2F | E2F G2c | BcB {^c}d2B | AFD D2 :|
|: c |\
BGB {Bc}d2c | BGB {Bc}d2c | BGB d2B | ecA A2c ||\
BGB {Bc}d2c | BGB def | {ef}g>fe dcB | AFD D2 :|
% - - - - - - - - - -
% Voice 2 preserves the book's staff layout.
V: 2 clef=bass middle=d
z | e3 e3 | e3 e3 | e3 e3 | d3 d3 || e3 e3 | e3 e3 | g3 g3 | d3 d2 :|
|: z | G3 g3 | G3 g3 | G3 g3 | a3 a3 || g3 G3 | g3 G3 | G3 g3 | d3 D2 :|


